X: 20246
T: Joe Holmes'
R: reel
M: 4/4
K: Gmajor
D2|G2GF GABd|c2cB cdef|g2fg ecAF|GBAG FDEF|
G2GF GABd|c2cB cdef|g2fg ecAF|G2GFG2:|:Bc|
d2dc BGBd|efed ^cdef|g2fg ecAF|GBAF DEFD|
G2GF GABd|c2cB cdef|g2fg ecAF|G2GFG2:|

